X:1
T:Title
%%score ( 1 2 ) { 3 | 4 }
L:1/8
Q:1/4=100
M:4/4
K:A
V:1 treble nm="Grand Piano, Soprano"
V:2 treble 
V:3 bass nm="Choir Pad, Bass"
V:4 bass 
V:1
 CD E2 [Ec]2 [Ec]2 | [Ec][Ec] [Ec]2 [Fd][Ec] [DB]2 | [Ec][DB] [CA]2 [CA]2 [FB]2 | AB [^Ec]6 | %4
w: By~Anonymous,~1864 * * * *||||
 [Ac][Ac] [Bd]2 [Bd][Bd][Ac][Ac] | [Ac]2 [GB]2 [FA]2 [EG]2 | [DF][DF] [CE]2 [CA]2 [DB]2 | %7
w: |||
 [Ec]2 [CA]6 | [B,G][CA] [DB]6 | [Ec]2 [CA]6 | [CA][EG] [DF]2 EE [DF]2 | [DG][DG] [CA]6 | %12
w: |||||
 [B,G][CA] [EB]6 | [Ee]2 [Ee]6 | [Ec][EA] [DB]6 | [Ec]2 [CA]6- | [CA]2 z2 z4 |] %17
w: |||||
V:2
 x8 | x8 | x8 | F2 z2 z4 | x8 | x8 | x8 | x8 | x8 | x8 | x8 | x8 | x8 | x8 | x8 | x8 | x8 |] %17
V:3
 C,D, E,2 A,2 A,2 | A,A, A,2 A,A, G,2 | G,G, A,2 A,2 F,2 | F,2 G,6 | A,A, E,2 F,E,E,E, | %5
 E,2 E,2 E,2 E,2 | G,G, A,2 A,2 G,2 | G,2 A,6 | B,C D4 z2 | C2 C6 | A,A, A,2 A,A, D2 | B,B, A,6 | %12
 E,E, G,2 G,2 G,2 | A,B, C6 | A,A, G,6 | G,2 A,6- | A,2 z2 z4 |] %17
V:4
 z4 A,,2 A,,2 | A,,A,, z2 z2 E,2 | E,^E, F,2 F,2 D,2 | D,2 C,6 | A,,A,, z2 z4 | z8 | %6
 E,E, E,2 E,2 E,2 | E,2 A,,6 | E,E, E,2 E,2 E,2 | E,E, A,,2 A,,2 A,,2 | A,,A,, D,2 C,C, B,,2 | %11
 E,E, A,,6 | z2 E,2 E,2 E,2 | F,G, A,2 A,2 A,2 | A,,C, E,2 E,E, E,2 | E,E, A,,6- | A,,2 z2 z4 |] %17

